public/library/bifrost-staking-text-light.svg

<svg width="476" height="152" viewBox="0 0 476 152" fill="none" xmlns="http://www.w3.org/2000/svg">
<path d="M242 44C238.686 44 236 46.6863 236 50V60H254L250 72H236V120H224V50C224 40.0589 232.059 32 242 32H256L252 44H242Z" fill="black"/>
<path fill-rule="evenodd" clip-rule="evenodd" d="M128 36H158C171.255 36 182 46.7452 182 60C182 66.704 179.251 72.766 174.819 77.1205C180.41 81.5146 184 88.338 184 96C184 109.255 173.255 120 160 120H128V36ZM140 48H158C164.627 48 170 53.3726 170 60C170 66.6274 164.627 72 158 72H140V48ZM140 84V108H160C166.627 108 172 102.627 172 96C172 89.3726 166.627 84 160 84H140Z" fill="black"/>
<path d="M208 36H196V48H208V36Z" fill="black"/>
<path d="M208 60H196V120H208V60Z" fill="black"/>
<path d="M264 60V120H276V72H292L296 60H264Z" fill="black"/>
<path fill-rule="evenodd" clip-rule="evenodd" d="M352 89.5C352 106.345 342.357 120 325 120C307.643 120 298 106.345 298 89.5C298 72.6553 307.643 59 325 59C342.357 59 352 72.6553 352 89.5ZM340 89.5C340 95.7433 338.208 100.471 335.775 103.403C333.55 106.085 330.229 108 325 108C319.771 108 316.45 106.085 314.225 103.403C311.792 100.471 310 95.7433 310 89.5C310 83.2567 311.792 78.5291 314.225 75.5965C316.45 72.9154 319.771 71 325 71C330.229 71 333.55 72.9154 335.775 75.5965C338.208 78.5291 340 83.2567 340 89.5Z" fill="black"/>
<path d="M396.01 78.2448C395.945 77.395 395.71 76.567 395.319 75.8101C394.889 74.8926 394.328 74.0428 393.653 73.2877C392.239 71.7368 390.427 70.6019 388.415 70.0057C387.339 69.6891 386.232 69.4931 385.113 69.4214C383.886 69.3493 382.655 69.3786 381.433 69.5091C379.327 69.6655 377.301 70.3779 375.561 71.5737C374.97 72.0292 374.476 72.5989 374.11 73.2488C373.801 73.809 373.606 74.4245 373.535 75.0602C373.54 75.1218 373.54 75.1836 373.535 75.2452V75.479C373.525 75.6638 373.525 75.8492 373.535 76.0341C373.562 76.3335 373.627 76.6282 373.73 76.9106C373.965 77.5043 374.328 78.0395 374.792 78.4785C376.474 79.938 378.43 81.0472 380.546 81.741C381.764 82.1792 383.049 82.5591 384.373 82.9097L385.347 83.1531L386.418 83.4063C387.188 83.5719 387.957 83.7472 388.736 83.942C390.284 84.3218 391.852 84.7503 393.468 85.2664C395.176 85.7827 396.84 86.434 398.444 87.2142C400.331 88.1329 402.057 89.3496 403.557 90.8176C405.253 92.5098 406.507 94.5935 407.208 96.8848C407.547 97.9561 407.775 99.059 407.89 100.177C408.014 101.266 408.033 102.365 407.948 103.459C407.749 105.754 407.058 107.979 405.923 109.984C404.831 111.898 403.387 113.59 401.667 114.97C400.06 116.245 398.271 117.272 396.36 118.018C392.93 119.285 389.306 119.944 385.649 119.966C381.973 120.145 378.297 119.616 374.821 118.408C371.108 117.065 367.799 114.795 365.21 111.814C363.932 110.327 362.837 108.692 361.948 106.945C361.043 105.116 360.388 103.173 360 101.17L371.228 99.4072C371.343 100.362 371.599 101.294 371.987 102.173C372.601 103.604 373.499 104.896 374.627 105.969C375.755 107.042 377.09 107.875 378.55 108.416C380.733 109.201 383.049 109.548 385.367 109.438C387.709 109.43 390.026 108.957 392.183 108.046C393.841 107.391 395.218 106.179 396.078 104.617C396.401 103.99 396.596 103.305 396.653 102.602C396.676 102.203 396.676 101.803 396.653 101.404C396.619 101.028 396.55 100.656 396.448 100.293C396.278 99.6984 395.971 99.1514 395.552 98.6963C394.924 98.0435 394.194 97.4975 393.39 97.0796C391.096 95.9099 388.666 95.0268 386.155 94.4501L384.101 93.9437L382.971 93.6905L381.793 93.4178C380.206 93.038 378.609 92.59 376.992 92.0447C375.307 91.517 373.664 90.866 372.075 90.0969C370.272 89.2122 368.6 88.0814 367.109 86.737C365.323 85.1346 363.947 83.1275 363.097 80.884C362.677 79.7602 362.396 78.5894 362.259 77.3975C362.187 76.8387 362.148 76.2761 362.142 75.7127V74.8167C362.142 74.4856 362.142 74.1837 362.22 73.8428C362.486 71.4971 363.304 69.2478 364.606 67.2789C365.853 65.3909 367.482 63.7852 369.387 62.5653C372.732 60.5383 376.525 59.3675 380.43 59.1567C382.197 58.9935 383.974 58.9577 385.746 59.0496C387.621 59.1582 389.479 59.4683 391.287 59.9748C395.088 61.0052 398.565 62.982 401.395 65.7207C402.822 67.1103 404.069 68.6743 405.105 70.3758C406.232 72.2174 407.051 74.2306 407.53 76.336L396.01 78.2448Z" fill="black"/>
<path d="M418 102V48H430V60H444V72H430V102C430 105.314 432.686 108 436 108H444V120H436C426.059 120 418 111.941 418 102Z" fill="black"/>
<path d="M72 120H32L92 60H112L72 120Z" fill="url(#paint0_linear)"/>
<defs>
<linearGradient id="paint0_linear" x1="72" y1="60" x2="72" y2="120" gradientUnits="userSpaceOnUse">
<stop stop-color="#12D5D5"/>
<stop offset="0.201333" stop-color="#0BB0F8"/>
<stop offset="0.403244" stop-color="#4584F5"/>
<stop offset="0.602076" stop-color="#AC57C0"/>
<stop offset="0.801867" stop-color="#E65659"/>
<stop offset="1" stop-color="#FFBF12"/>
</linearGradient>
</defs>
</svg>

<svg xmlns="http://www.w3.org/2000/svg" width="476" height="152" fill="none" viewBox="0 0 476 152"><path fill="#000" d="M242 44a6 6 0 0 0-6 6v10h18l-4 12h-14v48h-12V50c0-9.941 8.059-18 18-18h14l-4 12z"/><path fill="#000" fill-rule="evenodd" d="M128 36h30c13.255 0 24 10.745 24 24a23.93 23.93 0 0 1-7.181 17.12C180.41 81.516 184 88.339 184 96c0 13.255-10.745 24-24 24h-32zm12 12h18c6.627 0 12 5.373 12 12s-5.373 12-12 12h-18zm0 36v24h20c6.627 0 12-5.373 12-12s-5.373-12-12-12z" clip-rule="evenodd"/><path fill="#000" d="M208 36h-12v12h12zM208 60h-12v60h12zM264 60v60h12V72h16l4-12z"/><path fill="#000" fill-rule="evenodd" d="M352 89.5c0 16.845-9.643 30.5-27 30.5s-27-13.655-27-30.5S307.643 59 325 59s27 13.655 27 30.5m-12 0c0 6.243-1.792 10.971-4.225 13.903C333.55 106.085 330.229 108 325 108s-8.55-1.915-10.775-4.597C311.792 100.471 310 95.743 310 89.5s1.792-10.97 4.225-13.903C316.45 72.915 319.771 71 325 71s8.55 1.915 10.775 4.597C338.208 78.529 340 83.257 340 89.5" clip-rule="evenodd"/><path fill="#000" d="M396.01 78.245a6.4 6.4 0 0 0-.691-2.435 10.4 10.4 0 0 0-1.666-2.522 11.5 11.5 0 0 0-5.238-3.282 15 15 0 0 0-3.302-.585 22.3 22.3 0 0 0-3.68.088 11.9 11.9 0 0 0-5.872 2.065 5.6 5.6 0 0 0-1.451 1.675 4.9 4.9 0 0 0-.575 1.811q.007.093 0 .185v.234q-.015.278 0 .555.04.451.195.877a4.4 4.4 0 0 0 1.062 1.567 16.7 16.7 0 0 0 5.754 3.263c1.218.438 2.503.818 3.827 1.169l.974.243 1.071.253c.77.166 1.539.341 2.318.536 1.548.38 3.116.808 4.732 1.324a33.6 33.6 0 0 1 4.976 1.948 19.5 19.5 0 0 1 5.113 3.604 14.6 14.6 0 0 1 3.651 6.067 16.5 16.5 0 0 1 .682 3.292 17.2 17.2 0 0 1 .058 3.282 16.1 16.1 0 0 1-2.025 6.525 17.5 17.5 0 0 1-4.256 4.986 20.6 20.6 0 0 1-5.307 3.048 31.5 31.5 0 0 1-10.711 1.948 28.7 28.7 0 0 1-10.828-1.558 23.17 23.17 0 0 1-9.611-6.594 24.6 24.6 0 0 1-3.262-4.869A22.8 22.8 0 0 1 360 101.17l11.228-1.763a9.7 9.7 0 0 0 .759 2.766 11.5 11.5 0 0 0 6.563 6.243 17.7 17.7 0 0 0 6.817 1.022 17.7 17.7 0 0 0 6.816-1.392 7.66 7.66 0 0 0 3.895-3.429 5.3 5.3 0 0 0 .575-2.015q.035-.599 0-1.198a6 6 0 0 0-.205-1.111 4 4 0 0 0-.896-1.597 8.3 8.3 0 0 0-2.162-1.616 31.4 31.4 0 0 0-7.235-2.63l-2.054-.506-1.13-.254-1.178-.272a55 55 0 0 1-4.801-1.373 36 36 0 0 1-4.917-1.948 21.7 21.7 0 0 1-4.966-3.36 15 15 0 0 1-4.012-5.853 14.8 14.8 0 0 1-.838-3.487 14 14 0 0 1-.117-1.684v-.896c0-.331 0-.633.078-.974a14.96 14.96 0 0 1 2.386-6.564 16.2 16.2 0 0 1 4.781-4.714 23.8 23.8 0 0 1 11.043-3.408 37 37 0 0 1 5.316-.107c1.875.108 3.733.418 5.541.925a23.3 23.3 0 0 1 10.108 5.746 23.7 23.7 0 0 1 3.71 4.655 19.9 19.9 0 0 1 2.425 5.96zM418 102V48h12v12h14v12h-14v30a6 6 0 0 0 6 6h8v12h-8c-9.941 0-18-8.059-18-18"/><path fill="url(#a)" d="M72 120H32l60-60h20z"/><defs><linearGradient id="a" x1="72" x2="72" y1="60" y2="120" gradientUnits="userSpaceOnUse"><stop stop-color="#12d5d5"/><stop offset=".201" stop-color="#0bb0f8"/><stop offset=".403" stop-color="#4584f5"/><stop offset=".602" stop-color="#ac57c0"/><stop offset=".802" stop-color="#e65659"/><stop offset="1" stop-color="#ffbf12"/></linearGradient></defs></svg>
